X:8779
T:L'amant Suisse
R:Polska
Q:1/4=120
O:England
M:3/4
C:C.A. Goss
A:Lancaster
K:Emin
(3:2:3E2G2E2 F>G| (3:2:3A2c2A2 B>B| \
(3:2:3e2B2^d2 c>B| (3:2:3^A2B2G2 =F>^G|
(3:2:3E2G2E2 ^F>G | (3:2:3A2c2A2 B>B|\
(3:2:3e2g2e2 f>^a \
|1 (3:2:3b2g2=f2 (5c/B/A/G/F/ :|2 \
(3:2:3b2g2=f2 (3^dc=d ||
K:Dmin
|: (3:2:4^dfg2d2 ^f>a| (3:2:4gab2g2 ^g>=b | \
(3:2:3_b2g2b2 (3a^fa| (3:2:3^g2c'2a2 =g/=f/^d/=d/ |
(3:2:3c2^d2c2 =d>^d| (3:2:3=f2^g2f2 =g>g |\
(3:2:3^g2=g2=f2 e>^c \
|1 (3:2:3=c2_B2^G2 (3Bcd \
:|2 (3:2:3=c2_B2^G2 =G>F | E6 | ^D6 | =C6 | =B,6 ||
W:Copyright C.A. Goss
